docs/img/logo-stepik.svg

<svg width="72" height="75" viewBox="0 0 72 75" fill="none" xmlns="http://www.w3.org/2000/svg">
<path d="M65.0687 20.2175L53.238 7.97588C48.6212 3.30179 42.5616 0.705078 36.0691 0.705078C29.5767 0.705078 23.5171 3.30179 18.9724 7.97588L7.14169 20.2175C2.52484 24.8916 0 31.1237 0 37.801C0 44.4783 2.52484 50.7104 7.06955 55.3845L18.9002 67.5519C23.4449 72.226 29.5767 74.8227 35.997 74.8227C42.273 74.8227 48.2605 72.3744 52.8052 67.8487L64.9244 55.3845C69.4691 50.7104 71.994 44.4041 71.994 37.801C72.1383 31.1237 69.6856 24.8916 65.0687 20.2175Z" fill="black"/>
<path d="M44.7971 59.2429C42.5608 61.4687 39.4589 62.8783 36.1405 62.8783C32.6779 62.8783 29.576 61.4687 27.2675 59.0945L33.1107 53.085C33.9043 53.9011 34.9142 54.3462 36.1405 54.3462C37.2948 54.3462 38.3768 53.8269 39.1703 53.085L51.001 40.9175C51.7945 40.1014 52.2274 39.0627 52.2274 37.8015C52.2274 36.6144 51.7224 35.5015 51.001 34.6854C50.2075 33.8693 49.1976 33.4241 47.9712 33.4241C46.7449 33.4241 45.7349 33.9435 44.9414 34.6854L33.1107 46.9271C30.8744 49.227 27.7004 50.7108 24.2377 50.7108C20.7751 50.7108 17.6731 49.227 15.3647 46.9271C13.1284 44.6271 11.6857 41.3627 11.6857 37.8015C11.6857 34.2402 13.0563 31.05 15.3647 28.6759L27.1954 16.5084C29.4317 14.2084 32.6058 12.7246 36.0684 12.7246C39.531 12.7246 42.633 14.1343 44.9414 16.5084L39.0982 22.5179C38.3047 21.7018 37.2947 21.2567 36.0684 21.2567C34.842 21.2567 33.8321 21.776 33.0386 22.5179L21.2079 34.6854C20.4144 35.5015 19.9816 36.5402 19.9816 37.8015C19.9816 38.9885 20.4865 40.1014 21.2079 40.9175C22.0014 41.7336 23.0114 42.1788 24.2377 42.1788C25.3919 42.1788 26.474 41.6594 27.2675 40.9175L39.0982 28.75C41.3345 26.4501 44.5086 24.9663 47.9712 24.9663C51.4338 24.9663 54.5358 26.3759 56.8442 28.75C59.0805 31.05 60.5233 34.3144 60.5233 37.8756C60.5233 41.4369 59.1526 44.6271 56.8442 47.0012L44.7971 59.2429Z" fill="white"/>
</svg>

<svg width="72" height="75" fill="none" xmlns="http://www.w3.org/2000/svg"><path d="M65.069 20.218L53.238 7.976C48.621 3.302 42.562.706 36.069.706c-6.492 0-12.552 2.596-17.097 7.27L7.142 20.218C2.525 24.892 0 31.123 0 37.8c0 6.677 2.525 12.91 7.07 17.584L18.9 67.552c4.545 4.674 10.677 7.27 17.097 7.27 6.276 0 12.264-2.448 16.808-6.973l12.12-12.465c4.544-4.674 7.069-10.98 7.069-17.583.144-6.677-2.308-12.91-6.925-17.584z" fill="#000"/><path d="M44.797 59.243c-2.236 2.226-5.338 3.635-8.656 3.635-3.463 0-6.565-1.41-8.873-3.784l5.843-6.009c.793.816 1.803 1.261 3.03 1.261 1.154 0 2.236-.52 3.03-1.261L51 40.917c.794-.816 1.226-1.854 1.226-3.116 0-1.187-.505-2.3-1.226-3.116-.793-.816-1.803-1.26-3.03-1.26-1.226 0-2.236.519-3.03 1.26L33.11 46.927c-2.237 2.3-5.41 3.784-8.873 3.784-3.463 0-6.565-1.484-8.873-3.784-2.237-2.3-3.68-5.564-3.68-9.126 0-3.56 1.371-6.751 3.68-9.125l11.83-12.168c2.237-2.3 5.41-3.783 8.873-3.783 3.463 0 6.565 1.41 8.873 3.783l-5.843 6.01c-.793-.816-1.803-1.261-3.03-1.261-1.226 0-2.236.519-3.03 1.26l-11.83 12.168c-.794.816-1.226 1.855-1.226 3.116 0 1.188.505 2.3 1.226 3.116.793.817 1.803 1.262 3.03 1.262 1.154 0 2.236-.52 3.03-1.262l11.83-12.167c2.236-2.3 5.41-3.784 8.873-3.784 3.463 0 6.565 1.41 8.873 3.784 2.236 2.3 3.68 5.564 3.68 9.126 0 3.56-1.371 6.751-3.68 9.125L44.797 59.243z" fill="#fff"/></svg>47 21.7018 37.2947 21.2567 36.0684 21.2567C34.842 21.2567 33.8321 21.776 33.0386 22.5179L21.2079 34.6854C20.4144 35.5015 19.9816 36.5402 19.9816 37.8015C19.9816 38.9885 20.4865 40.1014 21.2079 40.9175C22.0014 41.7336 23.0114 42.1788 24.2377 42.1788C25.3919 42.1788 26.474 41.6594 27.2675 40.9175L39.0982 28.75C41.3345 26.4501 44.5086 24.9663 47.9712 24.9663C51.4338 24.9663 54.5358 26.3759 56.8442 28.75C59.0805 31.05 60.5233 34.3144 60.5233 37.8756C60.5233 41.4369 59.1526 44.6271 56.8442 47.0012L44.7971 59.2429Z" fill="white"/>
</svg>
